Suru++-Asprómauros/apps/16/tag.svg

<svg xmlns="http://www.w3.org/2000/svg" width="16" height="16" version="1.1">
 <defs>
  <style id="current-color-scheme" type="text/css">
   .ColorScheme-Text { color:#ececec; } .ColorScheme-Highlight { color:#5294e2; }
  </style>
  <linearGradient id="arrongin" x1="0%" x2="0%" y1="0%" y2="100%">
   <stop id="stop3" offset="0%" style="stop-color:#dd9b44"/>
   <stop id="stop5" offset="100%" style="stop-color:#ad6c16"/>
  </linearGradient>
  <linearGradient id="aurora" x1="0%" x2="0%" y1="0%" y2="100%">
   <stop id="stop8" offset="0%" style="stop-color:#09D4DF"/>
   <stop id="stop10" offset="100%" style="stop-color:#9269F4"/>
  </linearGradient>
  <linearGradient id="fitdance" x1="0%" x2="0%" y1="0%" y2="100%">
   <stop id="stop13" offset="0%" style="stop-color:#1AD6AB"/>
   <stop id="stop15" offset="100%" style="stop-color:#329DB6"/>
  </linearGradient>
  <linearGradient id="oomox" x1="0%" x2="0%" y1="0%" y2="100%">
   <stop id="stop18" offset="0%" style="stop-color:#efefe7"/>
   <stop id="stop20" offset="100%" style="stop-color:#8f8f8b"/>
  </linearGradient>
  <linearGradient id="rainblue" x1="0%" x2="0%" y1="0%" y2="100%">
   <stop id="stop23" offset="0%" style="stop-color:#00F260"/>
   <stop id="stop25" offset="100%" style="stop-color:#0575E6"/>
  </linearGradient>
  <linearGradient id="sunrise" x1="0%" x2="0%" y1="0%" y2="100%">
   <stop id="stop28" offset="0%" style="stop-color:#FF8501"/>
   <stop id="stop30" offset="100%" style="stop-color:#FFCB01"/>
  </linearGradient>
  <linearGradient id="telinkrin" x1="0%" x2="0%" y1="0%" y2="100%">
   <stop id="stop33" offset="0%" style="stop-color:#b2ced6"/>
   <stop id="stop35" offset="100%" style="stop-color:#6da5b7"/>
  </linearGradient>
  <linearGradient id="60spsycho" x1="0%" x2="0%" y1="0%" y2="100%">
   <stop id="stop38" offset="0%" style="stop-color:#df5940"/>
   <stop id="stop40" offset="25%" style="stop-color:#d8d15f"/>
   <stop id="stop42" offset="50%" style="stop-color:#e9882a"/>
   <stop id="stop44" offset="100%" style="stop-color:#279362"/>
  </linearGradient>
  <linearGradient id="90ssummer" x1="0%" x2="0%" y1="0%" y2="100%">
   <stop id="stop47" offset="0%" style="stop-color:#f618c7"/>
   <stop id="stop49" offset="20%" style="stop-color:#94ffab"/>
   <stop id="stop51" offset="50%" style="stop-color:#fbfd54"/>
   <stop id="stop53" offset="100%" style="stop-color:#0f83ae"/>
  </linearGradient>
  <linearGradient id="cyberneon" x1="0%" x2="0%" y1="0%" y2="100%">
   <stop id="stop56" offset="0" style="stop-color:#0abdc6"/>
   <stop id="stop58" offset="1" style="stop-color:#ea00d9"/>
  </linearGradient>
 </defs>
 <path fill="currentColor" class="ColorScheme-Text" d="m 2.6303665,1.3293021e-5 c 0,0 -0.6348629,-0.007254003 -1.2864104,0.318520096979 C 0.69240857,0.64430719 6.5e-6,1.402872 6.5e-6,2.6303734 V 8.1089201 L 7.8910866,16 15.999994,7.8910934 8.1089132,1.3293021e-5 Z m 0,1.052144106979 H 7.6732599 L 14.512197,7.8910934 7.8910866,14.512203 1.0521505,7.6732667 V 2.6303734 c 0,-0.8767868 0.3597419,-1.170366 0.7603384,-1.3706642 C 2.2130855,1.059411 2.6303665,1.0521573 2.6303665,1.0521574 Z m 1.052144,1.052144 c -0.8653939,0 -1.578216,0.712822 -1.578216,1.578216 0,0.8653939 0.7128221,1.578216 1.578216,1.578216 0.8653939,0 1.578216,-0.7128221 1.578216,-1.578216 0,-0.865394 -0.7128221,-1.578216 -1.578216,-1.578216 z m 0,1.052144 c 0.2967623,0 0.526072,0.2293097 0.526072,0.526072 0,0.2967621 -0.2293097,0.526072 -0.526072,0.526072 -0.2967622,0 -0.526072,-0.2293099 -0.526072,-0.526072 0,-0.2967623 0.2293098,-0.5260721 0.526072,-0.526072 z"/>
</svg>

<svg xmlns="http://www.w3.org/2000/svg" width="16" height="16" version="1.1">
 <defs>
   <style id="current-color-scheme" type="text/css">
   .ColorScheme-Text { color: #ececec; } .ColorScheme-Highlight { color:#5294e2; }
  </style>
  <linearGradient id="arrongin" x1="0%" x2="0%" y1="0%" y2="100%">
   <stop offset="0%" style="stop-color:#dd9b44; stop-opacity:1"/>
   <stop offset="100%" style="stop-color:#ad6c16; stop-opacity:1"/>
  </linearGradient>
  <linearGradient id="aurora" x1="0%" x2="0%" y1="0%" y2="100%">
   <stop offset="0%" style="stop-color:#09D4DF; stop-opacity:1"/>
   <stop offset="100%" style="stop-color:#9269F4; stop-opacity:1"/>
  </linearGradient>
  <linearGradient id="cyberneon" x1="0%" x2="0%" y1="0%" y2="100%">
    <stop offset="0" style="stop-color:#0abdc6; stop-opacity:1"/>
    <stop offset="1" style="stop-color:#ea00d9; stop-opacity:1"/>
  </linearGradient>
  <linearGradient id="fitdance" x1="0%" x2="0%" y1="0%" y2="100%">
   <stop offset="0%" style="stop-color:#1AD6AB; stop-opacity:1"/>
   <stop offset="100%" style="stop-color:#329DB6; stop-opacity:1"/>
  </linearGradient>
  <linearGradient id="oomox" x1="0%" x2="0%" y1="0%" y2="100%">
   <stop offset="0%" style="stop-color:#efefe7; stop-opacity:1"/>
   <stop offset="100%" style="stop-color:#8f8f8b; stop-opacity:1"/>
  </linearGradient>
  <linearGradient id="rainblue" x1="0%" x2="0%" y1="0%" y2="100%">
   <stop offset="0%" style="stop-color:#00F260; stop-opacity:1"/>
   <stop offset="100%" style="stop-color:#0575E6; stop-opacity:1"/>
  </linearGradient>
  <linearGradient id="sunrise" x1="0%" x2="0%" y1="0%" y2="100%">
   <stop offset="0%" style="stop-color: #FF8501; stop-opacity:1"/>
   <stop offset="100%" style="stop-color: #FFCB01; stop-opacity:1"/>
  </linearGradient>
  <linearGradient id="telinkrin" x1="0%" x2="0%" y1="0%" y2="100%">
   <stop offset="0%" style="stop-color: #b2ced6; stop-opacity:1"/>
   <stop offset="100%" style="stop-color: #6da5b7; stop-opacity:1"/>
  </linearGradient>
  <linearGradient id="60spsycho" x1="0%" x2="0%" y1="0%" y2="100%">
   <stop offset="0%" style="stop-color: #df5940; stop-opacity:1"/>
   <stop offset="25%" style="stop-color: #d8d15f; stop-opacity:1"/>
   <stop offset="50%" style="stop-color: #e9882a; stop-opacity:1"/>
   <stop offset="100%" style="stop-color: #279362; stop-opacity:1"/>
  </linearGradient>
  <linearGradient id="90ssummer" x1="0%" x2="0%" y1="0%" y2="100%">
   <stop offset="0%" style="stop-color: #f618c7; stop-opacity:1"/>
   <stop offset="20%" style="stop-color: #94ffab; stop-opacity:1"/>
   <stop offset="50%" style="stop-color: #fbfd54; stop-opacity:1"/>
   <stop offset="100%" style="stop-color: #0f83ae; stop-opacity:1"/>
  </linearGradient>
 </defs>
 <path fill="currentColor" class="ColorScheme-Text"  d="M 2.6308594 0 C 2.6308594 0 1.9952948 -0.0074130428 1.34375 0.31835938 C 0.69220517 0.64413179 -2.9605947e-16 1.4033631 0 2.6308594 L 0 8.109375 L 7.890625 16 L 16 7.890625 L 8.109375 0 L 2.6308594 0 z M 2.6308594 1.0527344 L 7.6738281 1.0527344 L 14.511719 7.890625 L 7.890625 14.511719 L 1.0527344 7.6738281 L 1.0527344 2.6308594 C 1.0527344 1.7540764 1.4119052 1.460063 1.8125 1.2597656 C 2.2130948 1.0594682 2.6308594 1.0527344 2.6308594 1.0527344 z M 3.6816406 2.1035156 C 2.8162502 2.1035156 2.1035156 2.8162501 2.1035156 3.6816406 C 2.1035156 4.5470311 2.8162501 5.2597656 3.6816406 5.2597656 C 4.5470311 5.2597656 5.2597656 4.5470311 5.2597656 3.6816406 C 5.2597656 2.8162502 4.5470311 2.1035156 3.6816406 2.1035156 z M 3.6816406 3.15625 C 3.9784016 3.15625 4.2089844 3.3848797 4.2089844 3.6816406 C 4.2089844 3.9784016 3.9784015 4.2089844 3.6816406 4.2089844 C 3.3848797 4.2089844 3.15625 3.9784015 3.15625 3.6816406 C 3.15625 3.3848797 3.3848797 3.15625 3.6816406 3.15625 z"/>
</svg>
